X:51
T:7. Gaillarde
C:Tielman Susato
B:Tielman Susato: Danserye (1551) no. 51
R:Galliard
Z:Transcribed by Frank Nordberg - http://www.musicaviva.com
F:http://abc.musicaviva.com/tunes/susato-tielman/susato-1551-51.abc
M:3/2
L:1/2
K:Ddor
V:1
AAA|G>F E/D/|C2B,|A,3|A,_B,C|DEF|ED2|^C2z:|
|:CCD|E2F|G>FE|D>EF|E2D|E2z:|
|:FFA|G>FE|EEG|F>ED|DDF|E>D C/A,/|D2^C|D2z:|
V:2
CCA,|C2G,|A,2G,|E,2E,|F,G,A,|B,CD|CA,2|A,2z:|
|:A,A,B,|CB,D|D2C|A,>B,C|CA,2|A,2z:|
|:D,DD|D2C|CCC|C2_B,|_B,A,>=B,|CB,A,|G,A,2|A,2z:|
V:3
F,F,F,|E,>D,E,|F,>E,D,|C,3|C,D,E,|F,G,A,|G,F,2|E,2z:|
|:E,E,F,|G,2A,|B,>A,G,|F,>G,A,|G,F,2|E,2z:|
|:A,A,A,|B,>A,G,|A,A,G,|A,>G,F,|G,G,F,|G,>F,E,|D,E,2|D,2z:|
V:4
F,,F,,F,,|C,2C,|F,,2G,,|A,,2A,,|F,,_B,,A,,|D,C,F,|C,D,2|A,,2z:|
|:A,,A,,D,|C,E,D,|G,,2C,|D,>C, A,,/B,,/|C,D,2|A,,2z:|
|:D,D,D,|G,,2C,|A,,C,2|F,,2_B,,|G,,D,2|C,G,,A,,|_B,,A,,2|D,2z:|
W:
W:
W:  From Musica Viva - http://www.musicaviva.com
W:  the Internet center for free sheet music downloads.
